assets/icons/pause.svg

<svg fill="none" height="25" viewBox="0 0 25 25" width="25"><path clip-rule="evenodd" d="m4.375 5a2.292 2.292 0 0 1 2.292-2.292h1.666a2.292 2.292 0 0 1 2.292 2.292v15a2.292 2.292 0 0 1 -2.292 2.292h-1.666a2.292 2.292 0 0 1 -2.292-2.292zm2.292-1.042c-.576 0-1.042.467-1.042 1.042v15c0 .575.466 1.042 1.042 1.042h1.666c.576 0 1.042-.467 1.042-1.042v-15c0-.575-.466-1.042-1.042-1.042zm7.708 1.042a2.292 2.292 0 0 1 2.292-2.292h1.666a2.292 2.292 0 0 1 2.292 2.292v15a2.292 2.292 0 0 1 -2.292 2.292h-1.666a2.292 2.292 0 0 1 -2.292-2.292zm2.292-1.042c-.576 0-1.042.467-1.042 1.042v15c0 .575.466 1.042 1.042 1.042h1.666c.576 0 1.042-.467 1.042-1.042v-15c0-.575-.466-1.042-1.042-1.042z" fill="#18303f" fill-rule="evenodd"/></svg>

<svg width="25" height="25" viewBox="0 0 25 25" fill="none"><g id="pause"><path id="iconDefault" fill-rule="evenodd" clip-rule="evenodd" d="M4.375 5a2.292 2.292 0 0 1 2.292-2.292h1.666A2.292 2.292 0 0 1 10.625 5v15a2.292 2.292 0 0 1-2.292 2.292H6.667A2.292 2.292 0 0 1 4.375 20V5Zm2.292-1.042c-.576 0-1.042.467-1.042 1.042v15c0 .575.466 1.042 1.042 1.042h1.666c.576 0 1.042-.467 1.042-1.042V5c0-.575-.466-1.042-1.042-1.042H6.667ZM14.375 5a2.292 2.292 0 0 1 2.292-2.292h1.666A2.292 2.292 0 0 1 20.625 5v15a2.292 2.292 0 0 1-2.292 2.292h-1.666A2.292 2.292 0 0 1 14.375 20V5Zm2.292-1.042c-.576 0-1.042.467-1.042 1.042v15c0 .575.466 1.042 1.042 1.042h1.666c.576 0 1.042-.467 1.042-1.042V5c0-.575-.466-1.042-1.042-1.042h-1.666Z" fill="#18303F"/></g></svg>
